libs/ui/packages/crypto-icons/src/svg/PASC.svg

<svg width="24" height="24" viewBox="0 0 24 24" fill="none">
<path d="M12 3C7.02975 3 3 7.02975 3 12C3 16.9703 7.02975 21 12 21C16.9703 21 21 16.9703 21 12C21 9.61305 20.0518 7.32387 18.364 5.63604C16.6761 3.94821 14.3869 3 12 3ZM16.5 7.35975C16.9476 7.35975 17.3768 7.53754 17.6932 7.85401C18.0097 8.17048 18.1875 8.5997 18.1875 9.04725V11.5778C18.1875 12.0253 18.0097 12.4545 17.6932 12.771C17.3768 13.0875 16.9476 13.2653 16.5 13.2653H14.4105L14.2755 13.8983C14.2571 13.9758 14.2139 14.0453 14.1525 14.096C14.091 14.1468 14.0146 14.1761 13.935 14.1795H13.5128C13.4778 14.181 13.4431 14.1741 13.4113 14.1595C13.3795 14.1449 13.3517 14.123 13.3301 14.0955C13.3085 14.0681 13.2937 14.0358 13.287 14.0015C13.2803 13.9672 13.2818 13.9318 13.2915 13.8983L13.4265 13.266H12.4418L12.3068 13.8983C12.2884 13.9758 12.2452 14.0453 12.1837 14.096C12.1222 14.1468 12.0459 14.1761 11.9662 14.1795H11.544C11.5091 14.181 11.4743 14.1741 11.4426 14.1595C11.4108 14.1449 11.383 14.123 11.3614 14.0955C11.3397 14.0681 11.325 14.0358 11.3183 14.0015C11.3116 13.9672 11.3131 13.9318 11.3228 13.8983L11.4578 13.266H10.4025L9.4755 17.625H7.2255L8.8695 9.89025H11.1195L10.761 11.5778H15.0938C15.5595 11.5778 15.9375 11.2005 15.9375 10.7347V9.89025C15.9375 9.42525 15.5595 9.04725 15.0938 9.04725H5.8125L7.21875 7.35975H12.7133L12.8475 6.72675C12.8659 6.64919 12.9091 6.57975 12.9705 6.52898C13.032 6.47822 13.1084 6.4489 13.188 6.4455H13.6102C13.6452 6.44402 13.6799 6.45086 13.7117 6.46546C13.7435 6.48006 13.7713 6.502 13.7929 6.52947C13.8145 6.55694 13.8293 6.58915 13.836 6.62345C13.8427 6.65776 13.8412 6.69316 13.8315 6.72675L13.6973 7.35975H14.682L14.8162 6.72675C14.8346 6.64919 14.8778 6.57975 14.9393 6.52898C15.0008 6.47822 15.0771 6.4489 15.1567 6.4455H15.579C15.6139 6.44402 15.6487 6.45086 15.6804 6.46546C15.7122 6.48006 15.74 6.502 15.7616 6.52947C15.7833 6.55694 15.798 6.58915 15.8047 6.62345C15.8114 6.65776 15.8099 6.69316 15.8002 6.72675L15.666 7.35975H16.5Z" fill="#F7931E"/>
</svg>

<svg width="24" height="24" viewBox="0 0 24 24" fill="none"><path fill="#f7931e" d="M12 3a9 9 0 1 0 0 18 9 9 0 0 0 0-18m4.5 4.36a1.687 1.687 0 0 1 1.688 1.687v2.53a1.687 1.687 0 0 1-1.688 1.688h-2.09l-.135.633a.366.366 0 0 1-.34.282h-.422a.22.22 0 0 1-.222-.282l.136-.632h-.985l-.135.632a.366.366 0 0 1-.34.282h-.423a.22.22 0 0 1-.221-.282l.135-.632h-1.056l-.926 4.359h-2.25L8.87 9.89h2.25l-.359 1.688h4.333a.843.843 0 0 0 .844-.843V9.89a.844.844 0 0 0-.844-.843H5.813L7.219 7.36h5.494l.135-.633a.366.366 0 0 1 .34-.282h.422a.22.22 0 0 1 .222.282l-.135.633h.985l.134-.633a.366.366 0 0 1 .34-.282h.423a.22.22 0 0 1 .221.282l-.134.633z"/></svg>
